src/pages/screens/Techs/images/design/Photoshop.svg

<svg width="32" height="32" viewBox="0 0 32 32" fill="none" xmlns="http://www.w3.org/2000/svg">
<path d="M3.16699 3.51709H28.833V28.4831H3.16699V3.51709Z" fill="#0C0824"/>
<path d="M3.167 3.5171H28.833V28.4831H3.167V3.5171ZM2 29.6501H30V2.3501H2V29.6501ZM20.877 13.5501C19.955 13.5501 19.64 14.0171 19.64 14.4021C19.64 14.8221 19.85 15.1141 21.087 15.7551C22.919 16.6421 23.487 17.4931 23.487 18.7421C23.487 20.6091 22.064 21.6121 20.139 21.6121C19.3128 21.6427 18.4917 21.4711 17.747 21.1121C17.665 21.0771 17.654 21.0191 17.654 20.9251V19.2081C17.654 19.0911 17.712 19.0561 17.794 19.1151C18.4934 19.5648 19.3075 19.8037 20.139 19.8031C21.061 19.8031 21.446 19.4181 21.446 18.8931C21.446 18.4731 21.178 18.1001 19.999 17.4931C18.342 16.7001 17.654 15.8931 17.654 14.5531C17.654 13.0481 18.832 11.8001 20.874 11.8001C21.5848 11.7696 22.2946 11.8807 22.962 12.1271C23.0004 12.152 23.0315 12.1868 23.0521 12.2277C23.0727 12.2687 23.0819 12.3144 23.079 12.3601V13.9601C23.079 14.0531 23.021 14.1121 22.904 14.0771C22.2872 13.722 21.5857 13.5406 20.874 13.5521L20.877 13.5501ZM10.843 14.9381C11.111 14.9611 11.321 14.9611 11.788 14.9611C13.153 14.9611 14.436 14.4831 14.436 12.6281C14.436 11.1461 13.514 10.4001 11.963 10.4001C11.496 10.4001 11.053 10.4231 10.843 10.4351V14.9381ZM8.766 8.7381C8.766 8.6561 8.929 8.5981 9.023 8.5981C10.0258 8.55712 11.0294 8.53778 12.033 8.5401C15.265 8.5401 16.525 10.3131 16.525 12.5771C16.525 15.5401 14.378 16.8121 11.742 16.8121C11.299 16.8121 11.147 16.7891 10.832 16.7891V21.2691C10.832 21.3621 10.797 21.4091 10.692 21.4091H8.907C8.814 21.4091 8.767 21.3741 8.767 21.2691V8.7431L8.766 8.7381Z" fill="#31C5F0"/>
</svg>

<svg width="32" height="32" fill="none" xmlns="http://www.w3.org/2000/svg"><path d="M3.167 3.517h25.666v24.966H3.167V3.517z" fill="#0C0824"/><path d="M3.167 3.517h25.666v24.966H3.167V3.517zM2 29.65h28V2.35H2v27.3zm18.877-16.1c-.922 0-1.237.467-1.237.852 0 .42.21.712 1.447 1.353 1.832.887 2.4 1.738 2.4 2.987 0 1.867-1.423 2.87-3.348 2.87a5.076 5.076 0 0 1-2.392-.5c-.082-.035-.093-.093-.093-.187v-1.717c0-.117.058-.152.14-.093.7.45 1.514.689 2.345.688.922 0 1.307-.385 1.307-.91 0-.42-.268-.793-1.447-1.4-1.657-.793-2.345-1.6-2.345-2.94 0-1.505 1.178-2.753 3.22-2.753.71-.03 1.42.08 2.088.327a.258.258 0 0 1 .117.233v1.6c0 .093-.058.152-.175.117a3.941 3.941 0 0 0-2.03-.525l.003-.002zm-10.034 1.388c.268.023.478.023.945.023 1.365 0 2.648-.478 2.648-2.333 0-1.482-.922-2.228-2.473-2.228-.467 0-.91.023-1.12.035v4.503zm-2.077-6.2c0-.082.163-.14.257-.14a69.769 69.769 0 0 1 3.01-.058c3.232 0 4.492 1.773 4.492 4.037 0 2.963-2.147 4.235-4.783 4.235-.443 0-.595-.023-.91-.023v4.48c0 .093-.035.14-.14.14H8.907c-.093 0-.14-.035-.14-.14V8.743l-.001-.005z" fill="#31C5F0"/></svg>
